resources/haticons/SVG/aid-kit.svg

<!-- Generated by IcoMoon.io -->
<svg version="1.1" xmlns="http://www.w3.org/2000/svg" width="24" height="24" viewBox="0 0 24 24">
<title>aid-kit</title>
<path d="M21 6h-4.5v-3c0-0.825-0.675-1.5-1.5-1.5h-6c-0.825 0-1.5 0.675-1.5 1.5v3h-4.5c-1.65 0-3 1.35-3 3v12c0 1.65 1.35 3 3 3h18c1.65 0 3-1.35 3-3v-12c0-1.65-1.35-3-3-3zM9 3h6v3h-6v-3zM18 16.5h-4.5v4.5h-3v-4.5h-4.5v-3h4.5v-4.5h3v4.5h4.5v3z"></path>
</svg>

<svg xmlns="http://www.w3.org/2000/svg" width="24" height="24"><path d="M21 6h-4.5V3c0-.825-.675-1.5-1.5-1.5H9c-.825 0-1.5.675-1.5 1.5v3H3C1.35 6 0 7.35 0 9v12c0 1.65 1.35 3 3 3h18c1.65 0 3-1.35 3-3V9c0-1.65-1.35-3-3-3zM9 3h6v3H9V3zm9 13.5h-4.5V21h-3v-4.5H6v-3h4.5V9h3v4.5H18v3z"/></svg>
